app/style/icons/matrixGrey.svg

<svg viewBox="0 0 40 40" xmlns="http://www.w3.org/2000/svg"><path d="m0 0h40v40h-40z" fill="none"/><g fill="#091440" transform="translate(1)"><path d="m1.041.9v37.609h2.7v.9h-3.741v-39.409h3.744v.9z"/><path d="m70.363 107.174v1.907h.059a5.467 5.467 0 0 1 1.837-1.685 4.962 4.962 0 0 1 2.457-.6 5.741 5.741 0 0 1 2.434.515 3.393 3.393 0 0 1 1.673 1.825 5.949 5.949 0 0 1 1.7-1.626 4.544 4.544 0 0 1 2.539-.7 7.778 7.778 0 0 1 2.071.269 3.891 3.891 0 0 1 2.691 2.434 6.257 6.257 0 0 1 .386 2.329v9.408h-3.864v-7.992c0-.468-.023-.913-.059-1.334a2.76 2.76 0 0 0 -.3-1.088 1.83 1.83 0 0 0 -.725-.737 2.665 2.665 0 0 0 -1.287-.269 2.486 2.486 0 0 0 -1.322.316 2.192 2.192 0 0 0 -.784.819 3.49 3.49 0 0 0 -.386 1.147 9.39 9.39 0 0 0 -.094 1.287v7.828h-3.866v-7.887c0-.421-.012-.831-.023-1.24a3.427 3.427 0 0 0 -.234-1.123 1.806 1.806 0 0 0 -.679-.831 2.546 2.546 0 0 0 -1.4-.316 2.855 2.855 0 0 0 -.725.117 2.386 2.386 0 0 0 -.866.456 2.627 2.627 0 0 0 -.725.983 3.96 3.96 0 0 0 -.3 1.673v8.156h-3.871v-14.041z" transform="translate(-58.895 -94.303)"/><path d="m288 38.509v-37.609h-2.7v-.9h3.744v39.41h-3.744v-.9h2.7z" transform="translate(-251.916)"/></g></svg>

<svg xmlns="http://www.w3.org/2000/svg" viewBox="0 0 40 40"><defs><style>.a{fill:none;}.b{fill:#091440;}</style></defs><g transform="translate(1393 1868)"><g transform="translate(-2479 -2546)"><rect class="a" width="40" height="40" transform="translate(1086 678)"/><g transform="translate(1087 678)"><path class="b" d="M1.041.9V38.509h2.7v.9H0V0H3.744V.9Z"/><path class="b" d="M70.363,107.174v1.907h.059a5.467,5.467,0,0,1,1.837-1.685,4.962,4.962,0,0,1,2.457-.6,5.741,5.741,0,0,1,2.434.515,3.393,3.393,0,0,1,1.673,1.825,5.949,5.949,0,0,1,1.7-1.626,4.544,4.544,0,0,1,2.539-.7,7.778,7.778,0,0,1,2.071.269,3.891,3.891,0,0,1,2.691,2.434,6.257,6.257,0,0,1,.386,2.329v9.408H84.346v-7.992c0-.468-.023-.913-.059-1.334a2.76,2.76,0,0,0-.3-1.088,1.83,1.83,0,0,0-.725-.737,2.665,2.665,0,0,0-1.287-.269,2.486,2.486,0,0,0-1.322.316,2.192,2.192,0,0,0-.784.819,3.49,3.49,0,0,0-.386,1.147,9.39,9.39,0,0,0-.094,1.287v7.828H75.523v-7.887c0-.421-.012-.831-.023-1.24a3.427,3.427,0,0,0-.234-1.123,1.806,1.806,0,0,0-.679-.831,2.546,2.546,0,0,0-1.4-.316,2.855,2.855,0,0,0-.725.117,2.386,2.386,0,0,0-.866.456,2.627,2.627,0,0,0-.725.983,3.96,3.96,0,0,0-.3,1.673v8.156H66.7V107.174Z" transform="translate(-58.895 -94.303)"/><path class="b" d="M288,38.509V.9h-2.7V0h3.744V39.41H285.3v-.9H288Z" transform="translate(-251.916)"/></g></g></g></svg>
